X:2893
L:1/8
Q:1/8=150
M:2/2
K:D
 FG | AFdF AFdF | AFGE D2 EF | GFGA Bcde | fedB A2 FG | AFdF cFBF | AFGE D2 EF | GFGA Bcde | 
 fdAF D2 :| fe | d2 B2 F2 D2 | B,DFB d2 cd | e^def gfe=d | cB^AG F2 fe | dcB^A Bd F2 | 
 gfed ce ^A2 | Fceg fedc | B2 d2 B2 :|

